img/features/features-icon1.svg

<svg width="70" height="70" viewBox="0 0 70 70" fill="none" xmlns="http://www.w3.org/2000/svg">
<rect width="70" height="70" rx="15" fill="#F25822" fill-opacity="0.25"/>
<path d="M23.7778 25.7778V45.2222H46V25.7778H23.7778ZM22.3889 23H47.3889C47.7572 23 48.1105 23.1463 48.371 23.4068C48.6314 23.6673 48.7778 24.0205 48.7778 24.3889V46.6111C48.7778 46.9795 48.6314 47.3327 48.371 47.5932C48.1105 47.8537 47.7572 48 47.3889 48H22.3889C22.0205 48 21.6673 47.8537 21.4068 47.5932C21.1463 47.3327 21 46.9795 21 46.6111V24.3889C21 24.0205 21.1463 23.6673 21.4068 23.4068C21.6673 23.1463 22.0205 23 22.3889 23ZM38.7681 32.4347L36.2778 29.9444H43.2222V36.8889L40.7319 34.3986L35.3653 39.7653L32.4194 36.8194L28.4903 40.7472L26.5264 38.7833L32.4194 32.8903L35.3653 35.8375L38.7681 32.4347Z" fill="#F25822"/>
</svg>

<svg width="70" height="70" fill="none" xmlns="http://www.w3.org/2000/svg"><rect width="70" height="70" rx="15" fill="#F25822" fill-opacity=".25"/><path d="M23.778 25.778v19.444H46V25.778H23.778zM22.388 23h25a1.389 1.389 0 011.39 1.389V46.61a1.39 1.39 0 01-1.39 1.39h-25A1.389 1.389 0 0121 46.611V24.39A1.389 1.389 0 0122.389 23zm16.38 9.435l-2.49-2.49h6.944v6.944l-2.49-2.49-5.367 5.366-2.946-2.946-3.929 3.928-1.964-1.964 5.893-5.893 2.946 2.947 3.403-3.402z" fill="#F25822"/></svg>
